X:1
T: The Garden Wall
C:
R:Jig
Q:180
K:G
M:6/8
L:1/16
|:Bc|d2B2G2 G2B2d2|g2a2g2 g2d2B2|d2B2G2 G2B2G2|A2F2D2 D4Bc|
d2B2G2 G2B2d2|g2a2g2 g2d2B2|c2B2c2 A2d2c2|B2G2G2 G4:|
D2|:g2f2g2 d2B2G2|g2f2g2 d2B2G2|c2a2c2 B2g2B2|a2A2A2 A4|
|1f2|g2f2g2 d2B2G2|g2f2g2 d2B2G2|F2G2A2 D2d2c2|B2G2G2 G4f2:|
|2c2|B2A2G2 c2B2A2|d2c2B2 e2d2c2|B2c2d2 D2E2F2|G6G4|| 
